X: 1
T: da Full Rigged Ship
R: air, jig
Z: 2014 John Chambers <jc:trillian.mit.edu>
S: page from Concord Slow Scottish Session collection
M: 6/8
L: 1/8
K: Am
e |:\
"Am"(e2a) (aea) | (aea) (aba) | "Em"e2^f g2g | "Em"(gag) "D"(^f2d) |\
"Am"(e2a) (aea) | (aea) (aba) | "Em"g2e "G"e(dB) | "Am"A3 [A3E3] :|
|:\
"Am"(efe) "G"(edB) | "Am"(A2B) "D7"c3 | "G"B2G B2G | "G"(Bcd) "Em"E3 |\
"Am"(efe) "G"(edB) | "Am"(A2B) "D7"(c2d) | "Am"(efe) "Em"(dBG) |1 "Am"A3 A3 :|2 "Am"A3 (A2E) :|
|:\
"C"(EGE) (EGE) | "C"(EGE) c3 | "C"(EGE) (E2D) | "C"(E2F) (GEC) |\
"C"(EGE) (EGE) | "C"(EGE) "F"(c2d) | "Am"(efe) "G"(dBG) |1 "Am"A3 (A2G) :|2 "Am"A3 A2 |]
